X:152
T:Humours of Westport
Z: id:dc-reel-140
M:C
L:1/8
K:F Major
dcB|AFcF dFcF|AFcA BdcB|AFcF dFcA|BAGA BdcB|!
AFcF dFcF|AFcA BdcB|Acfa gefc|BAGA B:|!
cde|f3e fcAc|f3e fage|fage fcAc|BAGA Bcde|!
f3e fcAc|f3e fagb|afge fcAc|BAGA B:|!

